X: 6985
T: Chicago, The
R: reel
M: 4/4
K: Adorian
|:cded cAGE|G2GE G2(3Bcd|ecgc acgc|eaag efed|
cded cAGE|G2GE G2(3Bcd|eaag (3efg ed|cABG A3B:|
|:cdef g2ef|gedc BG G2|(3Bcd ef ged2|eaag aged|
(3Bcd ef g3e|a3f g3e|f3d e3d|cABG A3B:|

